X:172
T:Johnny Will You Marry me
T:Some Say the Devil is Dead
S:Sean Gavin
R:Hornpipe
M:4/4
L:1/8
K:G
GE |: D2DE GABA | GEE2 cEGE | D2DE GABc |1 dedB A2GE :|2 dedB A2G2 ||
|: d2dc Bcd2 | e2ed cde2 | d2dc Bcd2 | GABG A2G2 :|

%%newpage
%%scale .7
%%staffsep 40

